packages/core/assets/Icons/history.svg

<svg viewBox="0 0 20 20" fill="none" xmlns="http://www.w3.org/2000/svg">
<path d="M10 17.5C8.25 17.5 6.70139 16.9688 5.35417 15.9062C4.00694 14.8438 3.13194 13.4861 2.72917 11.8333C2.67361 11.625 2.71528 11.434 2.85417 11.2604C2.99306 11.0868 3.18056 10.9861 3.41667 10.9583C3.63889 10.9306 3.84028 10.9722 4.02083 11.0833C4.20139 11.1944 4.32639 11.3611 4.39583 11.5833C4.72917 12.8333 5.41667 13.8542 6.45833 14.6458C7.5 15.4375 8.68056 15.8333 10 15.8333C11.625 15.8333 13.0035 15.2674 14.1354 14.1354C15.2674 13.0035 15.8333 11.625 15.8333 10C15.8333 8.375 15.2674 6.99653 14.1354 5.86458C13.0035 4.73264 11.625 4.16667 10 4.16667C9.04167 4.16667 8.14583 4.38889 7.3125 4.83333C6.47917 5.27778 5.77778 5.88889 5.20833 6.66667H6.66667C6.90278 6.66667 7.10069 6.74653 7.26042 6.90625C7.42014 7.06597 7.5 7.26389 7.5 7.5C7.5 7.73611 7.42014 7.93403 7.26042 8.09375C7.10069 8.25347 6.90278 8.33333 6.66667 8.33333H3.33333C3.09722 8.33333 2.89931 8.25347 2.73958 8.09375C2.57986 7.93403 2.5 7.73611 2.5 7.5V4.16667C2.5 3.93056 2.57986 3.73264 2.73958 3.57292C2.89931 3.41319 3.09722 3.33333 3.33333 3.33333C3.56944 3.33333 3.76736 3.41319 3.92708 3.57292C4.08681 3.73264 4.16667 3.93056 4.16667 4.16667V5.29167C4.875 4.40278 5.73958 3.71528 6.76042 3.22917C7.78125 2.74306 8.86111 2.5 10 2.5C11.0417 2.5 12.0174 2.69792 12.9271 3.09375C13.8368 3.48958 14.6285 4.02431 15.3021 4.69792C15.9757 5.37153 16.5104 6.16319 16.9062 7.07292C17.3021 7.98264 17.5 8.95833 17.5 10C17.5 11.0417 17.3021 12.0174 16.9062 12.9271C16.5104 13.8368 15.9757 14.6285 15.3021 15.3021C14.6285 15.9757 13.8368 16.5104 12.9271 16.9062C12.0174 17.3021 11.0417 17.5 10 17.5ZM10.8333 9.66667L12.9167 11.75C13.0694 11.9028 13.1458 12.0972 13.1458 12.3333C13.1458 12.5694 13.0694 12.7639 12.9167 12.9167C12.7639 13.0694 12.5694 13.1458 12.3333 13.1458C12.0972 13.1458 11.9028 13.0694 11.75 12.9167L9.41667 10.5833C9.33333 10.5 9.27083 10.4062 9.22917 10.3021C9.1875 10.1979 9.16667 10.0903 9.16667 9.97917V6.66667C9.16667 6.43056 9.24653 6.23264 9.40625 6.07292C9.56597 5.91319 9.76389 5.83333 10 5.83333C10.2361 5.83333 10.434 5.91319 10.5938 6.07292C10.7535 6.23264 10.8333 6.43056 10.8333 6.66667V9.66667Z" fill="currentColor"/>
</svg>

<svg xmlns="http://www.w3.org/2000/svg" width="20" height="20" fill="none" viewBox="0 0 20 20">
  <path fill="#201F1F" d="M10 17.5c-1.75 0-3.299-.531-4.646-1.594-1.347-1.062-2.222-2.42-2.625-4.073a.618.618 0 0 1 .125-.573.811.811 0 0 1 .563-.302.906.906 0 0 1 .604.125.87.87 0 0 1 .375.5 5.545 5.545 0 0 0 2.062 3.063A5.701 5.701 0 0 0 10 15.833c1.625 0 3.004-.566 4.135-1.698 1.132-1.131 1.698-2.51 1.698-4.135s-.566-3.003-1.698-4.135C13.004 4.733 11.625 4.167 10 4.167c-.958 0-1.854.222-2.688.666a6.193 6.193 0 0 0-2.104 1.834h1.459c.236 0 .434.08.593.24.16.159.24.357.24.593s-.08.434-.24.594a.806.806 0 0 1-.593.24H3.333a.806.806 0 0 1-.593-.24.806.806 0 0 1-.24-.594V4.167c0-.236.08-.434.24-.594.16-.16.357-.24.593-.24s.434.08.594.24c.16.16.24.358.24.594v1.125A7.276 7.276 0 0 1 6.76 3.229 7.446 7.446 0 0 1 10 2.5c1.042 0 2.017.198 2.927.594.91.396 1.702.93 2.375 1.604a7.623 7.623 0 0 1 1.604 2.375c.396.91.594 1.885.594 2.927a7.255 7.255 0 0 1-.594 2.927 7.623 7.623 0 0 1-1.604 2.375 7.623 7.623 0 0 1-2.375 1.604A7.255 7.255 0 0 1 10 17.5Zm.833-7.833 2.084 2.083a.79.79 0 0 1 .229.583.79.79 0 0 1-.23.584.79.79 0 0 1-.583.229.79.79 0 0 1-.583-.23l-2.333-2.333a.832.832 0 0 1-.25-.604V6.667c0-.236.08-.434.24-.594.159-.16.357-.24.593-.24s.434.08.594.24c.16.16.24.358.24.594v3Z"/>
</svg>
